src/resources/assets/async.svg

<svg xmlns="http://www.w3.org/2000/svg" width="16" height="16"><path d="M 7.144531 0.644531 C 7.339844 0.453125 7.660156 0.453125 7.855469 0.644531 L 9.355469 2.144531 C 9.546875 2.339844 9.546875 2.660156 9.355469 2.855469 L 7.855469 4.355469 C 7.660156 4.546875 7.339844 4.546875 7.144531 4.355469 C 6.953125 4.160156 6.953125 3.839844 7.144531 3.644531 L 7.789062 3.003906 C 5.125 3.113281 3 5.308594 3 8 C 3 9.566406 3.722656 10.96875 4.851562 11.882812 C 5.066406 12.058594 5.097656 12.375 4.925781 12.589844 C 4.75 12.800781 4.4375 12.835938 4.222656 12.660156 C 2.867188 11.5625 2 9.882812 2 8 C 2 4.753906 4.578125 2.109375 7.796875 2.003906 L 7.144531 1.355469 C 6.953125 1.160156 6.953125 0.839844 7.144531 0.644531 Z M 11.074219 3.410156 C 11.25 3.199219 11.5625 3.164062 11.777344 3.339844 C 13.132812 4.4375 14 6.117188 14 8 C 14 11.246094 11.421875 13.890625 8.203125 13.996094 L 8.855469 14.644531 C 9.046875 14.839844 9.046875 15.160156 8.855469 15.355469 C 8.660156 15.546875 8.339844 15.546875 8.144531 15.355469 L 6.644531 13.855469 C 6.550781 13.761719 6.5 13.632812 6.5 13.5 C 6.5 13.367188 6.550781 13.238281 6.644531 13.144531 L 8.144531 11.644531 C 8.339844 11.453125 8.660156 11.453125 8.855469 11.644531 C 9.046875 11.839844 9.046875 12.160156 8.855469 12.355469 L 8.210938 12.996094 C 10.875 12.886719 13 10.691406 13 8 C 13 6.433594 12.277344 5.03125 11.148438 4.117188 C 10.933594 3.941406 10.902344 3.625 11.074219 3.410156 Z M 11.074219 3.410156" fill="#ddd"/></svg>

<svg xmlns="http://www.w3.org/2000/svg" width="16" height="16"><path d="M7.145.645a.512.512 0 01.71 0l1.5 1.5a.512.512 0 010 .71l-1.5 1.5a.512.512 0 01-.71 0 .512.512 0 010-.71l.644-.641a4.999 4.999 0 00-2.937 8.879.506.506 0 01.074.707.501.501 0 01-.703.07A5.999 5.999 0 017.797 2.004l-.652-.649a.512.512 0 010-.71zm3.93 2.765a.501.501 0 01.702-.07 5.999 5.999 0 01-3.574 10.656l.652.649a.512.512 0 010 .71.512.512 0 01-.71 0l-1.5-1.5A.502.502 0 016.5 13.5c0-.133.05-.262.145-.355l1.5-1.5a.512.512 0 01.71 0 .512.512 0 010 .71l-.644.641a4.999 4.999 0 002.937-8.879.506.506 0 01-.074-.707zm0 0" fill="#ddd"/></svg>
